X: 32162
T: Peter Street
R: reel
M: 4/4
K: Dmajor
|:dA~A2 defe|edBA ABBA|FGGF GAAG|ABdf aeef|
dA~A2 defe|edBA ABBA|FGGF GAdf|aeef d2z2:|
|:g3a gfeg|fddA ~G3A|FA~A2 GAFA|GAdc A2(3Bcd|
g3f gfeg|fddA ~G3A|FGGF GAdf|1 aeef d2(3Bcd:|2 aeef d2z2||

